X:1
T:Andante Concerto Em
T:Andante Em
T:Vivaldi. Concerto for two mandolins. arr. G.Dempsey
C:Vivaldi
%%score ( 1 2 )
L:1/8
Q:1/4=30
M:4/4
K:G
V:1 treble-8 nm="Classical Guitar" snm="Guit."
V:2 treble-8 
V:1
 (3g/b/a/(3g/f/e/ ee (3f/c'/b/(3a/g/f/ ff | (3g/b/a/(3[eg]/f/e/ ee (3f/c'/b/(3a/g/f/ ff | %2
 (3g/b/a/(3g/f/e/ (3g/b/a/(3g/f/e/ (3[cc']/e/d/(3[cc']/!0!B/A/ (3[cc']/e/d/(3[cc']/B/A/ | %3
 (3f/a/g/(3f/e/d/ (3f/a/g/(3f/e/d/ (3!0![Bb]/d/c/(3[Bb]/A/G/ (3[Bb]/d/c/(3[Bb]/A/G/ | %4
 (3e/g/f/(3e/d/c/ (3e/g/f/(3e/d/c/ (3[fa]/[fa]/[gb]/(3[ac']/[gb]/[fa]/ (3z/ [fa]/[gb]/(3[ac']/[gb]/[fa]/ | %5
 (3z/ [Bg]/[ca]/(3[db]/[ca]/[Bg]/ (3z/ [Bg]/[ca]/(3[db]/[ca]/[Bg]/ (3[fa]/[ac']/[gb]/(3[fa]/[ac']/[gb]/ (3[fa]/[ac']/[gb]/(3[fa]/[ac']/[gb]/ | %6
 [gb]/[gb]/[fa]/[gb]/ T[fa]2 [Gg]4 :| %7
 [e^g]/>[eg]/[fa]/>[gb]/ [Be]/>[eg]/[fa]/>[gb]/ [ec'][ca] z/ a/[eb]/c'/ | %8
 [fa]/>[fa]/[=gb]/>[ac']/ [^df]/>[df]/[eg]/>[fa]/ [gb][eg] (3z/ e/f/(3g/a/b/ | %9
 (3e/e/f/(3g/a/b/ (3e/e/f/(3g/a/b/ (3c'/b/c'/(3a/g/a/ (3f/d/e/(3f/g/a/ | %10
 (3b/a/b/(3g/f/g/ (3e/c/d/(3e/f/g/ (3a/g/a/(3f/e/f/ (3^d/B/^c/(3d/e/f/ | %11
 (3[eg]/[eg]/[gb]/(3[eg]/[eg]/[gb]/ (3[eg]/[eg]/[gb]/(3[eg]/[eg]/!0![eg]/ (3[^df]/[df]/[fb]/(3[df]/[df]/[fb]/ (3[df]/[df]/[fb]/(3[df]/[df]/[fb]/ | %12
 [eg]/[gb]/[fa]/[eg]/ T[^df]>e (3e/e/f/(3g/a/b/ (3e/e/f/(3g/a/b/ | %13
 (3e/e/f/(3g/a/b/ (3c'/e/f/(3g/a/b/ (3c'/a/b/(3c'/b/a/ (3Ta/a/b/(3c'/b/a/ | %14
 (3Ta/a/f/(3^d/f/d/ (3z/ a/f/(3d/f/d/ (3z/ E/F/(3G/F/E/ (3z/ E/F/(3G/F/E/ | %15
 B/[gb]/[gb]/[gb]/ [gb]/[gb]/[gb]/[gb]/ [gb][fa]/[eg]/ T[^df]2 | %16
 (3!0![ee]/[eg]/[fa]/(3[gb]/!0![eg]/[fa]/ (3[gb]/[eg]/[fa]/(3[gb]/[eg]/[fa]/ (3[gb]/[eg]/[fa]/(3[gb]/[eg]/[fa]/ (3[gb]/[eg]/[fa]/(3[gb]/[eg]/[fa]/ | %17
 [gb]/[gb]/[fa]/[eg]/ T[^df]>[ee] [Ee]4 |] %18
V:2
 !1!EEEE ^DDDB, | [EG]EEE ^DDDB, | EEEE A,A,A,A, | DDDD G!0!GGG | CCCC DDDD | DDDD DDDD | %6
 GGDD G,4 :| E,E,E,E, A,A,A,A, | B,B,B,B, E,EEE | [E,E]E,[E,E]E, A,A,DD | GGAA FFB,B, | %11
 E,E,E,E, BB,B,B, | EEBB, [E,E]E,[E,E]E, | [E,E]E,[A,c]A, [A,c]A,[A,c]A, | %14
 [^DA]B,[B,B]B, [E,B]E,[E,B,]E, | [E,B,][E,E][E,E][E,E] [E,E]E,BB, | E,E,E,E, E,E,E,E, | %17
 EABB, E,4 |] %18

